icons/mobile/24/svg/reading-list-slash-fill-24.svg

<svg width="24" height="24" viewBox="0 0 24 24" fill="none" xmlns="http://www.w3.org/2000/svg">
<path fill-rule="evenodd" clip-rule="evenodd" d="M2.25558 2.25558C2.59715 1.91401 3.15212 1.9143 3.49386 2.25558L21.7439 20.5056C22.0856 20.8473 22.0856 21.4022 21.7439 21.7439C21.4022 22.0856 20.8473 22.0856 20.5056 21.7439L18.7331 19.9714C18.4555 20.0023 18.1699 20.0307 17.8777 20.0525C17.2958 20.0954 16.7394 20.1169 16.2146 20.1169C15.1968 20.12 14.1875 20.4277 13.2937 21.0075C12.9007 21.2635 12.4497 21.3913 11.9997 21.3913C11.5499 21.3912 11.0987 21.2635 10.7058 21.0075C9.81195 20.4278 8.80262 20.1199 7.78488 20.1169C7.26002 20.1159 6.70362 20.0964 6.12179 20.0525C5.62508 20.0155 5.14778 19.965 4.69601 19.903C3.15925 19.6908 1.99972 18.3583 1.99972 16.8025V6.30832C1.99994 5.4682 2.33914 4.69658 2.89328 4.13156L2.25558 3.49386C1.9143 3.15212 1.91401 2.59715 2.25558 2.25558ZM6.3757 14.4997C5.89259 14.4997 5.50093 14.8917 5.5007 15.3747C5.5007 15.858 5.89245 16.2497 6.3757 16.2497H10.1257C10.6087 16.2495 11.0007 15.8578 11.0007 15.3747C11.0005 14.8918 10.6086 14.5 10.1257 14.4997H6.3757ZM6.3757 10.9997C5.89259 10.9997 5.50093 11.3917 5.5007 11.8747C5.5007 12.358 5.89245 12.7497 6.3757 12.7497H10.1257C10.6087 12.7495 11.0007 12.3578 11.0007 11.8747C11.0005 11.3918 10.6086 11 10.1257 10.9997H6.3757ZM6.3757 7.49972C5.89284 7.49972 5.50093 7.89192 5.5007 8.37472C5.5007 8.85772 5.8927 9.24972 6.3757 9.24972H10.1257C10.2314 9.24964 10.3317 9.22405 10.4255 9.19015L8.73703 7.49972H6.3757Z" fill="black"/>
<path d="M16.8054 3.00265C17.1482 3.01265 17.5088 3.03036 17.8767 3.05734C18.3744 3.09532 18.8516 3.14675 19.3034 3.20871C20.8402 3.42067 21.9993 4.75268 21.9997 6.30832V16.8015C21.9997 17.3283 21.8576 17.8245 21.6228 18.2653L6.40109 3.04367C6.66978 3.02669 6.94029 3.00966 7.19601 3.00265C8.75968 2.96574 10.2951 3.40403 11.6589 4.29074C11.8658 4.42557 12.1336 4.4256 12.3405 4.29074C13.7044 3.40386 15.2266 2.95679 16.8054 3.00265Z" fill="black"/>
</svg>

<!-- This Source Code Form is subject to the terms of the Mozilla Public
   - License, v. 2.0. If a copy of the MPL was not distributed with this
   - file, You can obtain one at http://mozilla.org/MPL/2.0/. -->
<svg xmlns="http://www.w3.org/2000/svg" width="24" height="24" fill="none" viewBox="0 0 24 24">
    <path fill="#000" fill-rule="evenodd" d="M2.256 2.256a.877.877 0 0 1 1.238 0l18.25 18.25a.876.876 0 0 1-1.238 1.238l-1.773-1.773q-.416.048-.855.081-.875.065-1.663.065a5.4 5.4 0 0 0-2.921.89 2.37 2.37 0 0 1-2.588 0 5.4 5.4 0 0 0-2.921-.89 23 23 0 0 1-3.089-.214A3.14 3.14 0 0 1 2 16.803V6.307c0-.84.34-1.611.893-2.176l-.637-.638a.877.877 0 0 1 0-1.238M6.376 14.5a.875.875 0 0 0 0 1.75h3.75a.875.875 0 0 0 0-1.75zm0-3.5a.875.875 0 0 0 0 1.75h3.75a.875.875 0 0 0 0-1.75zm0-3.5a.876.876 0 0 0 0 1.75h3.75a.9.9 0 0 0 .3-.06L8.737 7.5z" clip-rule="evenodd" />
    <path fill="#000" d="M16.805 3.003c.343.01.704.027 1.072.054q.748.058 1.426.152A3.14 3.14 0 0 1 22 6.309v10.493c0 .526-.142 1.023-.377 1.463L6.4 3.044c.269-.017.54-.034.795-.041a7.8 7.8 0 0 1 4.463 1.288.63.63 0 0 0 .681 0c1.364-.887 2.887-1.334 4.465-1.288" />
</svg>
